X:155 
T:Oliver's Own* (reel)
F:file ID: cre.5/155oliver
B:CRE5.168 (gan ainm)
M:4/4
Q:180
R:reel
K:G
GA|B2dB A2BA|GABG AGEG|B2dB A2BA|GABG A2 (3gfe|
dBGB d2ef|g2af gfed|bgaf gfed|egfa g2:|
(3gfe|dBGB d2ef|g2af gfed|bgaf gfed|BedB A2 (3gfe|
dBGB d2ef|g2af gfed|bgaf gfed|egfa g2:|

%%%

